X:4
T:The Road To The Isles
R:strathspey
M:4/4
L:1/8
K:G
|: DG | B4d>BA>B | G>AG>F E2G2 | E>CE<G D>GB<d | A6 D>G |
B4d>BA>B | G>AG>F E2c2 | B<dB>G D>FA<F | G6 ::
B>c|d>DD/D/D B>DD/D/D | G>AG>F E2G2 | E>CE<G D>GB<d | A6 B>c |
d>DD/D/D B>DD/D/D | G>AG>F E2c2 | B<dB>G D>FA<F | G6 :|
